SVG-Logos/Software/Design/figma-logo-prt.svg

<svg width="23" height="34" viewBox="0 0 23 34" fill="none" xmlns="http://www.w3.org/2000/svg">
<g clip-path="url(#clip0)">
<path d="M6.22401 33.6668C9.29068 33.6668 11.7796 31.1779 11.7796 28.1112V22.5557H6.22401C3.15735 22.5557 0.668457 25.0446 0.668457 28.1112C0.668457 31.1779 3.15735 33.6668 6.22401 33.6668Z" fill="#0ACF83"/>
<path d="M0.668457 17.0004C0.668457 13.9337 3.15735 11.4448 6.22401 11.4448H11.7796V22.5559H6.22401C3.15735 22.5559 0.668457 20.067 0.668457 17.0004Z" fill="#A259FF"/>
<path d="M0.669434 5.88905C0.669434 2.82238 3.15832 0.333496 6.22499 0.333496H11.7805V11.4446H6.22499C3.15832 11.4446 0.669434 8.95572 0.669434 5.88905Z" fill="#F24E1E"/>
<path d="M11.7798 0.333496H17.3353C20.402 0.333496 22.8909 2.82238 22.8909 5.88905C22.8909 8.95572 20.402 11.4446 17.3353 11.4446H11.7798V0.333496Z" fill="#FF7262"/>
<path d="M22.8909 17.0004C22.8909 20.067 20.402 22.5559 17.3353 22.5559C14.2687 22.5559 11.7798 20.067 11.7798 17.0004C11.7798 13.9337 14.2687 11.4448 17.3353 11.4448C20.402 11.4448 22.8909 13.9337 22.8909 17.0004Z" fill="#1ABCFE"/>
</g>
<defs>
<clipPath id="clip0">
<rect width="22.2267" height="33.3333" fill="white" transform="translate(0.666504 0.333496)"/>
</clipPath>
</defs>
</svg>

<svg xmlns="http://www.w3.org/2000/svg" fill="none" viewBox="0 0 23 34"><g clip-path="url(#a)"><path fill="#0ACF83" d="M6.224 33.667a5.558 5.558 0 0 0 5.556-5.556v-5.555H6.224A5.558 5.558 0 0 0 .668 28.11a5.558 5.558 0 0 0 5.556 5.556Z"/><path fill="#A259FF" d="M.668 17a5.558 5.558 0 0 1 5.556-5.555h5.556v11.11H6.224A5.558 5.558 0 0 1 .668 17Z"/><path fill="#F24E1E" d="M.67 5.89A5.558 5.558 0 0 1 6.224.332h5.556v11.112H6.224A5.558 5.558 0 0 1 .669 5.889Z"/><path fill="#FF7262" d="M11.78.333h5.555a5.558 5.558 0 0 1 5.556 5.556 5.558 5.558 0 0 1-5.556 5.556H11.78V.333Z"/><path fill="#1ABCFE" d="M22.89 17a5.558 5.558 0 0 1-5.555 5.556A5.558 5.558 0 0 1 11.78 17a5.558 5.558 0 0 1 5.555-5.555A5.558 5.558 0 0 1 22.891 17Z"/></g><defs><clipPath id="a"><path fill="#fff" d="M.667.333h22.227v33.333H.667z"/></clipPath></defs></svg>
